X:835
T:Reel 835
M:4/4
K:Emin
L:1/8
B>A (3GFE G>E (3EEE | (3GFE B>E G>E (3FDF | (3GAG B>d  (3GGG e>G (3GGG |A>D (3DDD F>AA2:||2 (3cde d>B  (3GAG F2|G>G (3Bdd e>G (3GcG |A>G (3GFG A>F (3dFF |c>F (3FFd A>F (3FFF |d>cBA FA (3AGF | (3ddd d>A d>d (3ddd |c>A (3AGA E>E (3FED |A>d (3ddd e>d (3ddd |A>G (3AGF G>E (3FDd ||FAdd d2de|A>A (3Adc d>e (3cde | (3cde dB cA (3cde |c>A (3AAc d2de:||: (3ddd d>c  (3d
